X: 10
T: Old Torn Petticoat, The
Z: JACKB
S: https://thesession.org/tunes/368#setting52030
R: reel
M: 4/4
L: 1/8
K: Ador
|:AB|c2 Bc AGEF|G2 BG dGBG|cABG AE E2|GABG A3B|
c2 Bc AGEF|G3B dGBG|cABG AE E2|GABG A2 :|
|:AB|(3Bcd ef g3e|aged cA A2|(3Bcd ef gedg|eaag a3g|
bagb agef|gedc BG G2|cABG AE E2|GABG A2:|

%-------------------- TUNE SEPARATOR --------------------%

